dist/images/svg/html3-1306075.svg

<svg xmlns="http://www.w3.org/2000/svg" data-name="Layer 1" viewBox="0 0 24 24"><path d="M3.19467,2,4.79734,19.99433,11.98947,22l7.2119-2.01315L20.80533,2ZM17.476,6.12274l-.53371,5.99468.00193.03234-.00255.07415v-.00068l-.37922,4.19135-.04178.37236L12,18.03717v.00063l-.00366.00317L7.48367,16.78309l-.30574-3.46518h2.213l.15692,1.76226,2.45276.6644L12,15.74569l2.46141-.6743.26028-2.86933H9.57589L9.53173,11.717l-.10093-1.1364-.05224-.61022h5.53877l.20163-2.2317H6.68232L6.638,7.2542l-.10026-1.137L6.48482,5.507H17.52887Zm0,0"/></svg>

<svg xmlns="http://www.w3.org/2000/svg" data-name="Layer 1" viewBox="0 0 24 24"><path d="M3.195 2l1.602 17.994L11.99 22l7.212-2.013L20.805 2zm14.281 4.123l-.534 5.994.002.033-.002.074-.38 4.19-.041.373L12 18.037l-.004.004-4.512-1.258-.306-3.465H9.39l.157 1.762 2.453.665H12l2.461-.674.26-2.869H9.577l-.044-.485-.101-1.136-.052-.61h5.538l.202-2.232H6.682l-.044-.485-.1-1.137-.053-.61h11.044zm0 0"/></svg>
